public/logos/KQ.svg

<?xml version="1.0" encoding="UTF-8"?>
<svg xmlns="http://www.w3.org/2000/svg" xmlns:xlink="http://www.w3.org/1999/xlink" width="176pt" height="29.42pt" viewBox="0 0 176 29.42" version="1.1">
<defs>
<clipPath id="clip1">
  <path d="M 0 0 L 34 0 L 34 29.421875 L 0 29.421875 Z M 0 0 "/>
</clipPath>
</defs>
<g id="surface1">
<path style=" stroke:none;fill-rule:evenodd;fill:rgb(91.921997%,11.312866%,15.168762%);fill-opacity:1;" d="M 41.964844 9.195312 L 39.542969 21.167969 L 42.886719 21.167969 L 44.144531 15.535156 L 47.652344 21.167969 L 51.644531 21.167969 L 47.433594 14.507812 L 51.582031 9.195312 L 48.742188 9.195312 L 44.417969 14.445312 L 45.402344 9.195312 L 41.964844 9.195312 "/>
<path style=" stroke:none;fill-rule:evenodd;fill:rgb(91.921997%,11.312866%,15.168762%);fill-opacity:1;" d="M 89.53125 13.960938 C 90.199219 13.359375 92.078125 13.570312 91.226562 15.222656 C 90.695312 16.25 89.855469 17.433594 88.988281 18.199219 C 87.851562 19.199219 87.367188 18.144531 87.738281 16.871094 C 88.105469 15.617188 88.621094 14.773438 89.53125 13.960938 Z M 91.148438 17.359375 L 90.269531 21.167969 C 91.253906 21.167969 92.96875 21.167969 93.957031 21.167969 L 95.644531 11.957031 C 94.390625 11.957031 93.105469 12.121094 91.855469 11.996094 C 90.503906 11.859375 87.726562 11.8125 85.621094 14.671875 C 84.300781 16.457031 83.460938 19.0625 84.703125 20.507812 C 86.425781 22.503906 88.796875 20.398438 91.148438 17.359375 "/>
<path style=" stroke:none;fill-rule:evenodd;fill:rgb(91.921997%,11.312866%,15.168762%);fill-opacity:1;" d="M 149.101562 13.960938 C 149.769531 13.359375 151.652344 13.570312 150.800781 15.222656 C 150.269531 16.25 149.425781 17.433594 148.558594 18.199219 C 147.425781 19.199219 146.941406 18.144531 147.3125 16.871094 C 147.679688 15.617188 148.191406 14.773438 149.101562 13.960938 Z M 150.71875 17.359375 L 149.839844 21.167969 C 150.824219 21.167969 152.542969 21.167969 153.527344 21.167969 L 155.21875 11.957031 C 153.960938 11.957031 152.675781 12.121094 151.425781 11.996094 C 150.074219 11.859375 147.300781 11.8125 145.191406 14.671875 C 143.875 16.457031 143.03125 19.0625 144.277344 20.507812 C 146 22.503906 148.367188 20.398438 150.71875 17.359375 "/>
<path style=" stroke:none;fill-rule:evenodd;fill:rgb(91.921997%,11.312866%,15.168762%);fill-opacity:1;" d="M 115.101562 11.878906 L 118.539062 11.878906 L 116.613281 21.054688 L 113.105469 21.054688 Z M 115.839844 8.878906 L 119.28125 8.878906 L 118.8125 10.675781 L 115.34375 10.675781 L 115.839844 8.878906 "/>
<g clip-path="url(#clip1)" clip-rule="nonzero">
<path style=" stroke:none;fill-rule:evenodd;fill:rgb(91.921997%,11.312866%,15.168762%);fill-opacity:1;" d="M 9.3125 2.183594 C 0.96875 6.492188 -2.128906 15.277344 1.496094 22.300781 C 5.121094 29.320312 14.824219 31.523438 23.167969 27.21875 C 31.511719 22.910156 35.140625 14.058594 31.785156 7.101562 C 28.425781 0.148438 17.65625 -2.121094 9.3125 2.183594 Z M 9.3125 6.21875 C 2.164062 11.058594 0.425781 18.148438 3.957031 23.367188 C 7.492188 28.582031 16.484375 29.421875 23.636719 24.582031 C 30.785156 19.742188 33.652344 11.585938 30.121094 6.371094 C 26.589844 1.152344 16.460938 1.378906 9.3125 6.21875 "/>
</g>
<path style=" stroke:none;fill-rule:evenodd;fill:rgb(91.921997%,11.312866%,15.168762%);fill-opacity:1;" d="M 25.988281 5.1875 C 26.960938 4.265625 27.398438 4.285156 27.675781 5.75 C 28.238281 8.742188 26.917969 11.070312 24.433594 12.921875 C 22.277344 14.265625 19.929688 15.144531 17.308594 15.339844 C 25.0625 20.957031 27.914062 25.703125 35.96875 22.164062 C 35.675781 25.359375 34.664062 29.535156 26.464844 27.824219 C 21.316406 26.746094 17.617188 22.378906 15.191406 17.414062 C 14.8125 16.640625 14.511719 15.9375 13.9375 17.152344 C 13.285156 18.535156 13.09375 20.03125 12.945312 21.472656 C 12.894531 21.945312 13.191406 22.363281 13.550781 22.898438 C 13.90625 23.425781 13.585938 23.625 12.816406 23.589844 C 11.433594 23.523438 10.050781 23.617188 8.667969 23.632812 C 6.820312 21.992188 7.238281 19.457031 8.0625 17.066406 C 8.957031 14.488281 10.359375 12.117188 11.390625 9.59375 C 11.632812 9 11.355469 8.871094 10.828125 8.773438 C 10.238281 8.660156 10.324219 8.144531 10.957031 7.777344 C 12.816406 6.714844 14.765625 6.003906 17.09375 5.835938 C 18.296875 5.746094 18.574219 6.058594 18.042969 7.304688 C 17.464844 8.652344 16.917969 10.011719 16.355469 11.363281 C 19.734375 9.515625 23.234375 7.796875 25.988281 5.1875 "/>
<path style=" stroke:none;fill-rule:evenodd;fill:rgb(91.921997%,11.312866%,15.168762%);fill-opacity:1;" d="M 64.128906 12.082031 L 62.160156 21.140625 L 65.585938 21.140625 L 66.34375 17.996094 L 68.605469 15.273438 C 69.320312 14.414062 69.613281 15.101562 69.359375 16.347656 L 68.328125 21.140625 L 71.835938 21.140625 L 73.253906 14.960938 C 73.992188 11.734375 71.425781 11.394531 69.773438 12.414062 C 68.542969 13.171875 67.65625 14.113281 66.476562 15.890625 L 67.585938 12.082031 L 64.128906 12.082031 "/>
<path style=" stroke:none;fill-rule:evenodd;fill:rgb(91.921997%,11.312866%,15.168762%);fill-opacity:1;" d="M 74.394531 11.914062 L 76.414062 21.050781 L 73.1875 24.195312 L 76.71875 24.195312 L 86.015625 11.914062 L 83.171875 11.914062 L 79.167969 17.257812 L 78.007812 11.914062 L 74.394531 11.914062 "/>
<path style=" stroke:none;fill-rule:evenodd;fill:rgb(91.921997%,11.312866%,15.168762%);fill-opacity:1;" d="M 106.699219 11.925781 L 104.3125 15.9375 L 107.78125 15.9375 Z M 98.792969 20.988281 L 105.792969 8.992188 L 109.410156 8.992188 L 112.332031 20.988281 L 108.785156 20.988281 L 107.949219 17.757812 L 103.023438 17.757812 L 101.332031 20.914062 L 98.792969 20.988281 "/>
<path style=" stroke:none;fill-rule:evenodd;fill:rgb(91.921997%,11.312866%,15.168762%);fill-opacity:1;" d="M 167.253906 18.4375 C 167.097656 19.199219 166.941406 19.953125 166.785156 20.710938 C 169.511719 20.960938 174.050781 21.933594 174.964844 18.4375 C 175.1875 17.597656 174.941406 16.667969 173.78125 16.015625 C 172.570312 15.273438 171.613281 14.589844 172.011719 13.894531 C 172.53125 13.15625 174.613281 13.609375 175.515625 13.609375 C 175.679688 13.039062 175.839844 12.488281 176 11.921875 C 174.074219 11.847656 169.441406 11.132812 168.722656 13.726562 C 168.4375 14.757812 168.738281 15.582031 169.890625 16.46875 C 170.777344 17.148438 171.777344 17.589844 171.511719 18.523438 C 171.144531 19.796875 169.671875 19.671875 167.253906 18.4375 "/>
<path style=" stroke:none;fill-rule:evenodd;fill:rgb(91.921997%,11.312866%,15.168762%);fill-opacity:1;" d="M 55.40625 16.078125 C 55.855469 14.230469 57.355469 13.511719 57.839844 14.214844 C 58.441406 15.09375 57.128906 16.328125 55.40625 16.078125 Z M 55.113281 17.984375 C 57.636719 18.015625 60.148438 17.199219 61.195312 14.574219 C 62.128906 12.234375 59.273438 11.734375 57.140625 12.054688 C 54.867188 12.394531 52.585938 14.152344 51.746094 16.761719 C 50.90625 19.375 52.433594 21.195312 54.796875 21.417969 C 56.832031 21.613281 59.304688 21.1875 60.933594 20.414062 L 61.234375 18.164062 C 57.308594 20.1875 55.082031 19.8125 55.113281 17.984375 "/>
<path style=" stroke:none;fill-rule:evenodd;fill:rgb(91.921997%,11.312866%,15.168762%);fill-opacity:1;" d="M 156.738281 11.914062 L 158.761719 21.050781 L 155.53125 24.195312 L 159.0625 24.195312 L 168.359375 11.914062 L 165.519531 11.914062 L 161.515625 17.257812 L 160.351562 11.914062 L 156.738281 11.914062 "/>
<path style=" stroke:none;fill-rule:evenodd;fill:rgb(91.921997%,11.312866%,15.168762%);fill-opacity:1;" d="M 129.710938 11.910156 L 129.972656 20.957031 L 133.300781 20.957031 L 136.46875 15.6875 L 136.933594 20.824219 L 140.125 20.824219 L 145.050781 11.910156 L 142.734375 11.910156 L 139.707031 17.269531 L 139.179688 11.910156 L 136.070312 11.910156 L 133.046875 17.570312 L 132.652344 11.910156 L 129.710938 11.910156 "/>
<path style=" stroke:none;fill-rule:evenodd;fill:rgb(91.921997%,11.312866%,15.168762%);fill-opacity:1;" d="M 120.453125 11.910156 L 118.59375 21.007812 L 121.859375 21.007812 L 122.339844 18.804688 C 122.90625 16.183594 125.777344 14.394531 127.492188 14.492188 L 128.5625 11.789062 C 127.101562 11.546875 124.851562 12.53125 123.355469 15.351562 C 123.109375 15.8125 122.921875 15.523438 123.058594 14.992188 L 123.863281 11.910156 L 120.453125 11.910156 "/>
</g>
</svg>

<svg xmlns="http://www.w3.org/2000/svg" width="176pt" height="39.227" viewBox="0 0 176 29.42"><defs><clipPath id="a"><path d="M0 0h34v29.422H0Zm0 0"/></clipPath></defs><path d="m41.965 9.195-2.422 11.973h3.344l1.258-5.633 3.507 5.633h3.993l-4.211-6.66 4.148-5.313h-2.84l-4.324 5.25.984-5.25zM89.531 13.96c.668-.6 2.547-.39 1.696 1.263-.532 1.027-1.372 2.21-2.239 2.976-1.136 1-1.62-.054-1.25-1.328.367-1.254.883-2.098 1.793-2.91m1.617 3.4-.878 3.808h3.687l1.688-9.211c-1.254 0-2.54.164-3.79.04-1.351-.138-4.128-.184-6.234 2.675-1.32 1.785-2.16 4.39-.918 5.836 1.723 1.996 4.094-.11 6.445-3.149M149.102 13.96c.668-.6 2.55-.39 1.699 1.263-.531 1.027-1.375 2.21-2.242 2.976-1.133 1-1.618-.054-1.246-1.328.367-1.254.878-2.098 1.789-2.91m1.617 3.4-.88 3.808h3.688l1.692-9.211c-1.258 0-2.543.164-3.793.04-1.352-.138-4.125-.184-6.235 2.675-1.316 1.785-2.16 4.39-.914 5.836 1.723 1.996 4.09-.11 6.442-3.149M115.102 11.879h3.437l-1.926 9.176h-3.508Zm.738-3h3.441l-.469 1.797h-3.468z" style="stroke:none;fill-rule:evenodd;fill:#ea1d27;fill-opacity:1"/><g clip-path="url(#a)"><path d="M9.313 2.184C.969 6.492-2.13 15.277 1.495 22.3c3.625 7.02 13.328 9.222 21.672 4.918 8.344-4.309 11.973-13.16 8.617-20.117C28.425.148 17.656-2.121 9.313 2.184m0 4.035c-7.149 4.84-8.887 11.93-5.356 17.148 3.535 5.215 12.527 6.055 19.68 1.215 7.148-4.84 10.015-12.996 6.484-18.21-3.531-5.22-13.66-4.993-20.808-.153" style="stroke:none;fill-rule:evenodd;fill:#ea1d27;fill-opacity:1"/></g><path d="M25.988 5.188c.973-.922 1.41-.903 1.688.562.562 2.992-.758 5.32-3.242 7.172-2.157 1.344-4.504 2.223-7.125 2.418 7.753 5.617 10.605 10.363 18.66 6.824-.293 3.195-1.305 7.371-9.504 5.66-5.149-1.078-8.848-5.445-11.274-10.41-.379-.773-.68-1.477-1.254-.262-.652 1.383-.843 2.88-.992 4.32-.05.473.246.891.606 1.426.355.528.035.727-.735.692-1.382-.067-2.765.027-4.148.043-1.848-1.64-1.43-4.176-.605-6.567.894-2.578 2.296-4.949 3.328-7.472.242-.594-.036-.723-.563-.82-.59-.114-.504-.63.129-.997 1.86-1.062 3.809-1.773 6.137-1.941 1.203-.09 1.48.223.949 1.469-.578 1.347-1.125 2.707-1.688 4.058 3.38-1.847 6.88-3.566 9.633-6.175M64.129 12.082l-1.969 9.059h3.426l.758-3.145 2.261-2.723c.715-.859 1.008-.171.754 1.075l-1.03 4.793h3.507l1.418-6.18c.738-3.227-1.828-3.566-3.48-2.547-1.231.758-2.118 1.7-3.297 3.477l1.109-3.809zM74.395 11.914l2.02 9.137-3.228 3.144h3.532l9.297-12.28h-2.844l-4.004 5.343-1.16-5.344zM106.7 11.926l-2.388 4.012h3.47Zm-7.907 9.062 7-11.996h3.617l2.922 11.996h-3.547l-.836-3.23h-4.926l-1.691 3.156zM167.254 18.438c-.156.761-.313 1.515-.469 2.273 2.727.25 7.266 1.223 8.18-2.273.222-.84-.024-1.77-1.184-2.422-1.21-.743-2.168-1.426-1.77-2.121.52-.739 2.602-.286 3.505-.286.164-.57.324-1.12.484-1.687-1.926-.074-6.559-.79-7.277 1.805-.286 1.03.015 1.855 1.168 2.742.886.68 1.886 1.12 1.62 2.054-.366 1.274-1.84 1.149-4.257-.085M55.406 16.078c.45-1.848 1.95-2.566 2.434-1.863.601.879-.711 2.113-2.434 1.863m-.293 1.906c2.524.032 5.035-.785 6.082-3.41.934-2.34-1.922-2.84-4.054-2.52-2.274.34-4.555 2.098-5.395 4.708-.84 2.613.688 4.433 3.05 4.656 2.036.195 4.509-.23 6.138-1.004l.3-2.25c-3.925 2.023-6.152 1.648-6.12-.18M156.738 11.914l2.024 9.137-3.23 3.144h3.53l9.297-12.28h-2.84l-4.003 5.343-1.164-5.344zM129.71 11.91l.263 9.047h3.328l3.168-5.27.465 5.137h3.191l4.926-8.914h-2.317l-3.027 5.36-.527-5.36h-3.11l-3.023 5.66-.395-5.66zM120.453 11.91l-1.86 9.098h3.266l.48-2.203c.567-2.621 3.438-4.41 5.153-4.313l1.07-2.703c-1.46-.242-3.71.742-5.207 3.563-.246.46-.433.171-.296-.36l.804-3.082z" style="stroke:none;fill-rule:evenodd;fill:#ea1d27;fill-opacity:1"/></svg>
